lib/svgs/tie.svg

<?xml version="1.0" encoding="UTF-8"?>
<svg width="16px" height="16px" viewBox="0 0 16 16" version="1.1" xmlns="http://www.w3.org/2000/svg" xmlns:xlink="http://www.w3.org/1999/xlink">
    <!-- Generator: sketchtool 51.3 (57544) - http://www.bohemiancoding.com/sketch -->
    <title>app/tie</title>
    <desc>Created with sketchtool.</desc>
    <defs></defs>
    <g id="Icons" stroke="none" stroke-width="1" fill="none" fill-rule="evenodd">
        <g id="Web" transform="translate(-579.000000, -504.000000)" fill="#000000">
            <g id="app/tie" transform="translate(579.000000, 504.000000)">
                <path d="M10.8347849,11.8913043 L8.84949076,6.02173913 C8.78331429,5.76086957 8.51860841,5.56521739 8.25390253,5.56521739 L5.6068437,5.56521739 C5.34213782,5.56521739 5.07743194,5.76086957 5.01125547,6.02173913 L3.02596135,11.8913043 C2.95978488,12.1521739 3.02596135,12.4130435 3.15831429,12.5434783 L6.46713782,15.8043478 C6.59949076,15.9347826 6.79802017,16 6.93037311,16 C7.06272606,16 7.26125547,15.9347826 7.39360841,15.8043478 L10.7024319,12.5434783 C10.9009614,12.3478261 10.9671378,12.0869565 10.8347849,11.8913043 L10.8347849,11.8913043 M13.4156672,8.43478261 L10.7024319,5.5 C10.4377261,5.23913043 10.0406672,5.5 10.1730202,5.82608696 L11.8274319,10.3913043 C11.8936084,10.6521739 12.2244908,10.7173913 12.3568437,10.5217391 L13.4156672,9.2826087 C13.6141966,9.02173913 13.6141966,8.63043478 13.4156672,8.43478261 L13.4156672,8.43478261 M5.07743194,4 C5.20978488,4.13043478 5.40831429,4.26086957 5.6068437,4.26086957 L8.25390253,4.26086957 C8.45243194,4.26086957 8.65096135,4.13043478 8.78331429,4 L10.1068437,2.04347826 C10.2391966,1.84782609 10.2391966,1.58695652 10.1068437,1.39130435 C10.0406672,1.13043478 9.84213782,1 9.57743194,1 L4.28331429,1 C4.01860841,1 3.820079,1.13043478 3.68772606,1.32608696 C3.55537311,1.52173913 3.55537311,1.7826087 3.68772606,1.97826087 L5.07743194,4 L5.07743194,4" id="Shape"></path>
            </g>
        </g>
    </g>
</svg>

<svg xmlns="http://www.w3.org/2000/svg" viewBox="0 0 16 16">
    <path d="M10.835 11.891l-1.986-5.87a.634.634 0 0 0-.595-.456H5.607a.634.634 0 0 0-.596.457l-1.985 5.87c-.066.26 0 .521.132.651l3.31 3.261A.72.72 0 0 0 6.93 16a.72.72 0 0 0 .464-.196l3.308-3.26c.199-.196.265-.457.133-.653m2.58-3.456L10.703 5.5c-.264-.26-.661 0-.529.326l1.654 4.565c.067.261.397.326.53.13l1.059-1.238c.198-.261.198-.653 0-.848M5.077 4c.133.13.331.26.53.26h2.647c.198 0 .397-.13.53-.26l1.323-1.957a.585.585 0 0 0 0-.652C10.04 1.131 9.842 1 9.577 1H4.283a.697.697 0 0 0-.595.326.585.585 0 0 0 0 .652L5.078 4"/>
</svg>
